img/clubs.svg

<?xml version="1.0" encoding="UTF-8"?>
<svg width="96px" height="96px" viewBox="0 0 96 96" version="1.1" xmlns="http://www.w3.org/2000/svg" xmlns:xlink="http://www.w3.org/1999/xlink">
    <!-- Generator: Sketch 43.2 (39069) - http://www.bohemiancoding.com/sketch -->
    <title>clubs</title>
    <desc>Created with Sketch.</desc>
    <defs></defs>
    <g id="Page-1" stroke="none" stroke-width="1" fill="none" fill-rule="evenodd">
        <g id="clubs" fill-rule="nonzero" fill="#19A974">
            <path d="M70.5327847,20.3915805 C66.8921053,21.1778205 64.1399883,18.9389835 62.3498951,15.105846 C61.862564,14.0623211 61.4750132,12.9609781 61.172549,11.8616905 C60.9904121,11.1997254 60.8749106,10.6755023 60.8170792,10.3528113 C60.5705071,8.97697545 61.7752994,7.77901284 63.1497113,8.03340239 C63.4724971,8.09314673 63.9978009,8.21154851 64.6614338,8.39679459 C65.7636582,8.7044689 66.8679046,9.0957908 67.913927,9.58453297 C71.6740939,11.3414287 73.910952,13.9916044 73.2714589,17.4730719 C73.833031,17.9678062 74.3780649,18.483077 74.9058538,19.0174433 C75.1702657,18.1070591 75.5351654,17.185796 75.9782238,16.2625407 C76.5352051,15.1018901 77.0929401,14.1746128 77.4850031,13.6053553 C78.2768281,12.4556618 79.9730844,12.450331 80.7721199,13.595025 C81.1695931,14.164443 81.7349996,15.0919411 82.2997415,16.2530723 C83.0076424,17.7085439 83.5189517,19.159344 83.7451617,20.5713516 C84.2116075,23.4829149 83.3914261,25.9836031 81.0452804,27.501017 C81.5304696,28.4345497 81.9770063,29.3915296 82.383062,30.3682288 C82.8579252,29.7478003 83.4121723,29.136492 84.0335203,28.5347256 C85.2396642,27.3665931 86.4342824,26.4812773 87.2692378,25.9574367 C88.4468096,25.2186429 90.0003096,25.8768702 90.2886482,27.2367792 C90.3425561,27.4910284 90.4169944,27.9130291 90.4897674,28.4642613 C90.6955978,30.0233609 90.756319,31.6400099 90.5792554,33.1912259 C90.1514874,36.9388071 88.3665863,39.628339 84.9712472,40.1749681 C85.0796149,41.0637182 85.1557054,41.9579423 85.1984542,42.8554708 C86.0295952,42.4172039 86.9806928,42.0706104 88.0268527,41.8126917 C89.0974115,41.5487576 90.2219793,41.3883266 91.3582899,41.3086188 C92.125743,41.254785 92.8037344,41.2434932 93.3455233,41.2567299 C93.4224993,41.2586105 93.4735456,41.2604159 93.5160375,41.2622881 C94.9105144,41.3258288 95.8125944,42.7622229 95.2642041,44.0459174 C94.8378024,45.0440559 94.0810012,46.472996 93.0173093,47.9212226 C90.5873917,51.2295786 87.6370351,52.995973 84.4536817,51.9868358 C84.2960855,52.7185549 84.1154719,53.4422918 83.9124714,54.1571901 C84.3772017,54.1021102 84.8606277,54.0757618 85.3602011,54.0772561 C86.782673,54.081511 88.2642168,54.3057601 89.7381468,54.6748433 C90.623614,54.896571 91.3206417,55.1208097 91.7452849,55.2800977 C93.0614459,55.773803 93.4710394,57.4354532 92.5351128,58.4842936 C91.9506496,59.1392688 90.9867657,60.0750821 89.7587036,61.0159097 C87.9619559,62.3924117 86.1463116,63.3330795 84.3139601,63.6176374 C82.7877587,63.8546513 81.3453914,63.6059637 80.0855054,62.8479405 C79.610923,63.6166538 79.1063697,64.3662677 78.5730316,65.0951714 C79.8143882,65.3393801 81.084155,65.7854953 82.3579352,66.3763686 C83.5143654,66.9128063 84.4382938,67.4502348 85.0053841,67.8280761 C86.1739385,68.6066613 86.1973724,70.3154992 85.0506074,71.1258351 C84.4745345,71.5329041 83.5357988,72.1123572 82.3607569,72.6912619 C80.893833,73.4139672 79.431816,73.936954 78.0087679,74.1705568 C75.4142689,74.596461 73.1399731,74.0019784 71.5885689,72.2100083 C68.0807922,74.8812129 64.0071812,76.9355912 59.5,78.1935484 L60.0468284,78.1173412 C59.4578737,78.2847486 57.270083,78.883435 57.3073239,78.8731288 C56.1854862,79.1835922 55.3233942,79.4354909 54.4907477,79.7018259 C53.5062085,80.016746 52.599377,80.3445649 51.7675561,80.6906819 C53.1111403,81.9792919 54.1192273,83.4884244 54.8000344,85.2945737 C55.1896306,86.3281541 54.6675782,87.4818668 53.6339978,87.871463 C52.6004173,88.2610592 51.4467047,87.7390068 51.0571084,86.7054263 C50.4692412,85.145842 49.4653663,83.86134 48,82.7608618 C46.5346337,83.86134 45.5307588,85.145842 44.9428916,86.7054263 C44.5532953,87.7390068 43.3995827,88.2610592 42.3660022,87.871463 C41.3324218,87.4818668 40.8103694,86.3281541 41.1999656,85.2945737 C41.8807727,83.4884244 42.8888597,81.9792919 44.2324439,80.6906819 C43.400623,80.3445649 42.4937915,80.016746 41.5092523,79.7018259 C40.6766058,79.4354909 39.8145138,79.1835922 38.6926761,78.8731288 C38.729917,78.883435 36.5421263,78.2847486 36.5,78.1935484 L35.9531716,78.1173412 C31.6606149,76.8972035 27.7451405,74.894157 24.3472892,72.2829544 C22.7976771,74.0180691 20.5502012,74.5906286 17.9912321,74.1705568 C16.568184,73.936954 15.106167,73.4139672 13.6392431,72.6912619 C12.4642012,72.1123572 11.5254655,71.5329041 10.9493926,71.1258351 C9.8026276,70.3154992 9.82606145,68.6066613 10.9946159,67.8280761 C11.5617062,67.4502348 12.4856346,66.9128063 13.6420648,66.3763686 C14.899179,65.7932263 16.1523842,65.3510788 17.3782285,65.1048606 C16.8529063,64.3783532 16.3553059,63.6310407 15.8867314,62.8645446 C14.6334369,63.6095871 13.2010425,63.8529122 11.6860399,63.6176374 C9.85368836,63.3330795 8.03804411,62.3924117 6.24129642,61.0159097 C5.01323434,60.0750821 4.04935039,59.1392688 3.46488722,58.4842936 C2.52896064,57.4354532 2.93855407,55.773803 4.25471511,55.2800977 C4.67935827,55.1208097 5.37638601,54.896571 6.26185318,54.6748433 C7.73578319,54.3057601 9.21732695,54.081511 10.6397989,54.0772561 C11.1375526,54.0757673 11.6192764,54.1019187 12.0824496,54.1565894 C11.8807216,53.4421411 11.7010836,52.7188222 11.5442305,51.9874973 C8.36167493,52.9952006 5.4120771,51.2288554 2.98269072,47.9212226 C1.91899881,46.472996 1.16219756,45.0440559 0.735795855,44.0459174 C0.187405584,42.7622229 1.08948559,41.3258288 2.48396248,41.2622881 C2.52645435,41.2604159 2.57750069,41.2586105 2.65447671,41.2567299 C3.19626558,41.2434932 3.87425699,41.254785 4.6417101,41.3086188 C5.77802068,41.3883266 6.9025885,41.5487576 7.97314734,41.8126917 C9.01930718,42.0706104 9.97040483,42.4172039 10.8015458,42.8554708 C10.8442946,41.9579423 10.9203851,41.0637182 11.0287528,40.1749681 C7.63341365,39.628339 5.84851255,36.9388071 5.42074463,33.1912259 C5.24368096,31.6400099 5.30440218,30.0233609 5.51023261,28.4642613 C5.58300562,27.9130291 5.65744393,27.4910284 5.71135183,27.2367792 C5.99969044,25.8768702 7.55319043,25.2186429 8.73076218,25.9574367 C9.56571755,26.4812773 10.7603358,27.3665931 11.9664797,28.5347256 C12.5878277,29.136492 13.1420748,29.7478003 13.616938,30.3682288 C14.0229937,29.3915296 14.4695304,28.4345497 14.9547196,27.501017 C12.6085739,25.9836031 11.7883925,23.4829149 12.2548383,20.5713516 C12.4810483,19.159344 12.9923576,17.7085439 13.7002585,16.2530723 C14.2650004,15.0919411 14.8304069,14.164443 15.2278801,13.595025 C16.0269156,12.450331 17.7231719,12.4556618 18.5149969,13.6053553 C18.9070599,14.1746128 19.4647949,15.1018901 20.0217762,16.2625407 C20.4648346,17.185796 20.8297343,18.1070591 21.0941462,19.0174433 C21.6219351,18.483077 22.166969,17.9678062 22.7285411,17.4730719 C22.089048,13.9916044 24.3259061,11.3414287 28.086073,9.58453297 C29.1320954,9.0957908 30.2363418,8.7044689 31.3385662,8.39679459 C32.0021991,8.21154851 32.5275029,8.09314673 32.8502887,8.03340239 C34.2247006,7.77901284 35.4294929,8.97697545 35.1829208,10.3528113 C35.1250894,10.6755023 35.0095879,11.1997254 34.827451,11.8616905 C34.5249868,12.9609781 34.137436,14.0623211 33.6501049,15.105846 C31.8600117,18.9389835 29.1078947,21.1778205 25.4672153,20.3915805 C18.8474083,26.1705638 14.7607143,35.2620726 14.7607143,44.5677419 C14.7607143,52.7810163 17.9372053,60.3318281 23.1233117,65.8974279 C23.7774622,66.3222429 24.3532204,66.8852013 24.8334014,67.5938081 C28.1432168,70.6277599 32.1124838,72.9188141 36.5,74.1935484 L37.0468284,74.2697556 C37.6134477,74.4308143 39.7795371,75.0235622 39.7595561,75.0180325 C40.9279231,75.3413727 41.8364499,75.6068394 42.7278905,75.8919806 C44.7158972,76.5278754 46.4717788,77.2292478 48,78.037658 C49.5282212,77.2292478 51.2841028,76.5278754 53.2721095,75.8919806 C54.1635501,75.6068394 55.0720769,75.3413727 56.2404439,75.0180325 C56.2204629,75.0235622 58.3865523,74.4308143 59.5,74.1935484 L58.9531716,74.2697556 C63.7145655,72.9163533 67.951727,70.4736041 71.4193218,67.2454874 C71.7677953,66.7968291 72.1591692,66.4150142 72.5880297,66.0976786 C77.9920664,60.498949 81.2392857,52.871952 81.2392857,44.5677419 C81.2392857,35.2620726 77.1525917,26.1705638 70.5327847,20.3915805 L70.5327847,20.3915805 Z M18.5509111,68.9587271 C17.8805947,69.0596094 17.1528249,69.2642625 16.3966297,69.5517875 C17.185631,69.8772405 17.9441663,70.1092941 18.6391863,70.2233863 C19.8876998,70.4283381 20.7433441,70.2639522 21.3455577,69.6236189 C20.7437351,68.946141 19.8593265,68.7618112 18.5509111,68.9587271 Z M10.6517636,58.0772383 C10.1693782,58.0786812 9.66245509,58.116478 9.14132848,58.1853092 C10.2857145,58.9959296 11.3777638,59.5218165 12.2998686,59.6650162 C12.928533,59.7626457 13.4477583,59.6853189 13.9212588,59.3777893 C13.3970566,58.4597607 12.3470563,58.0721673 10.6517636,58.0772383 Z M7.01566229,45.6964041 C6.74535494,45.6297629 6.46687175,45.5711315 6.1822108,45.5201321 C6.19031073,45.531226 6.19842337,45.5423044 6.20654866,45.5533671 C7.68840993,47.5709353 9.0340626,48.453298 10.3649956,48.1206305 C10.1376846,46.9477834 9.04228134,46.1960439 7.01566229,45.6964041 Z M11.3993659,35.8273104 C11.7364719,34.7225543 10.9866186,33.1964757 9.31932622,31.5410586 C9.32631393,31.9494758 9.35073669,32.3503503 9.39493834,32.7375913 C9.61154256,34.6352135 10.1845542,35.7290232 11.2868306,36.1160731 C11.3329904,36.0188406 11.3702754,35.9226453 11.3993659,35.8273104 Z M17.4954088,21.1999865 C17.3870893,20.5147172 17.1659731,19.7678083 16.8554091,18.9911993 C16.539308,19.7696827 16.3143677,20.5181466 16.2044747,21.2041013 C16.0006941,22.4761037 16.1785026,23.3360625 16.8585771,23.9329988 C17.5216877,23.3360517 17.6966389,22.4730431 17.4954088,21.1999865 Z M30.025842,13.4132982 C30.086338,13.2837578 30.1451395,13.1523385 30.2022455,13.0193289 C30.059369,13.0804949 29.9182767,13.1435434 29.7793172,13.2084706 C27.6866874,14.1862284 26.6486864,15.2351138 26.6691023,16.5021949 C27.9852104,16.5401238 29.0488826,15.5052672 30.025842,13.4132982 Z M77.3608137,70.2233863 C78.0558337,70.1092941 78.814369,69.8772405 79.6033703,69.5517875 C78.8471751,69.2642625 78.1194053,69.0596094 77.4490889,68.9587271 C76.1406735,68.7618112 75.2562649,68.946141 74.6544423,69.6236189 C75.2566559,70.2639522 76.1123002,70.4283381 77.3608137,70.2233863 Z M83.7001314,59.6650162 C84.6222362,59.5218165 85.7142855,58.9959296 86.8586715,58.1853092 C86.3375449,58.116478 85.8306218,58.0786812 85.3482364,58.0772383 C83.6529437,58.0721673 82.6029434,58.4597607 82.0787412,59.3777893 C82.5522417,59.6853189 83.071467,59.7626457 83.7001314,59.6650162 Z M89.7934513,45.5533671 C89.8015766,45.5423044 89.8096893,45.531226 89.8177892,45.5201321 C89.5331283,45.5711315 89.2546451,45.6297629 88.9843377,45.6964041 C86.9577187,46.1960439 85.8623154,46.9477834 85.6350044,48.1206305 C86.9659374,48.453298 88.3115901,47.5709353 89.7934513,45.5533671 Z M86.6050617,32.7375913 C86.6492633,32.3503503 86.6736861,31.9494758 86.6806738,31.5410586 C85.0133814,33.1964757 84.2635281,34.7225543 84.6006341,35.8273104 C84.6297246,35.9226453 84.6670096,36.0188406 84.7131694,36.1160731 C85.8154458,35.7290232 86.3884574,34.6352135 86.6050617,32.7375913 Z M79.7955253,21.2041013 C79.6856323,20.5181466 79.460692,19.7696827 79.1445909,18.9911993 C78.8340269,19.7678083 78.6129107,20.5147172 78.5045912,21.1999865 C78.3033611,22.4730431 78.4783123,23.3360517 79.1414229,23.9329988 C79.8214974,23.3360625 79.9993059,22.4761037 79.7955253,21.2041013 Z M66.2206828,13.2084706 C66.0817233,13.1435434 65.940631,13.0804949 65.7977545,13.0193289 C65.8548605,13.1523385 65.913662,13.2837578 65.974158,13.4132982 C66.9511174,15.5052672 68.0147896,16.5401238 69.3308977,16.5021949 C69.3513136,15.2351138 68.3133126,14.1862284 66.2206828,13.2084706 Z M48,69.2043011 C34.195183,69.2043011 23,58.0666903 23,44.3225806 C23,30.578471 34.195183,19.4408602 48,19.4408602 C61.804817,19.4408602 73,30.578471 73,44.3225806 C73,58.0666903 61.804817,69.2043011 48,69.2043011 Z M48,65.2043011 C59.6002815,65.2043011 69,55.8529215 69,44.3225806 C69,32.7922398 59.6002815,23.4408602 48,23.4408602 C36.3997185,23.4408602 27,32.7922398 27,44.3225806 C27,55.8529215 36.3997185,65.2043011 48,65.2043011 Z M49.1715536,33.5489476 L58.7822678,40.4951842 C59.4875268,41.0049169 59.7822616,41.9121684 59.5112275,42.7390651 L55.814799,54.0164845 C55.5455185,54.8380313 54.7788383,55.3935484 53.9142857,55.3935484 L42.0857143,55.3935484 C41.2211617,55.3935484 40.4544815,54.8380313 40.185201,54.0164845 L36.4887725,42.7390651 C36.2177384,41.9121684 36.5124732,41.0049169 37.2177322,40.4951842 L46.8284464,33.5489476 C47.5277202,33.0435408 48.4722798,33.0435408 49.1715536,33.5489476 Z M40.7448003,42.8813546 L43.5348638,51.3935484 L52.4651362,51.3935484 L55.2551997,42.8813546 L48,37.637589 L40.7448003,42.8813546 Z M50,29.9791194 L50,35.1698925 C50,36.274462 49.1045695,37.1698925 48,37.1698925 C46.8954305,37.1698925 46,36.274462 46,35.1698925 L46,29.9791194 L38.9399083,24.8576098 C38.0458144,24.209019 37.8467948,22.9584261 38.4953856,22.0643322 C39.1439763,21.1702384 40.3945693,20.9712188 41.2886632,21.6198096 L48,26.4883265 L54.7113368,21.6198096 C55.6054307,20.9712188 56.8560237,21.1702384 57.5046144,22.0643322 C58.1532052,22.9584261 57.9541856,24.209019 57.0600917,24.8576098 L50,29.9791194 L50,29.9791194 Z M54.7681554,57.1237157 L52.4854284,54.792965 C51.712552,54.0038289 51.725733,52.7375675 52.5148691,51.9646911 C53.3040052,51.1918146 54.5702666,51.2049957 55.343143,51.9941318 L57.8763628,54.5806452 L66.8928571,54.5806452 C67.9974266,54.5806452 68.8928571,55.4760757 68.8928571,56.5806452 C68.8928571,57.6852147 67.9974266,58.5806452 66.8928571,58.5806452 L58.5030664,58.5806452 L55.9863536,66.5788005 C55.6548138,67.6324395 54.5319045,68.2178166 53.4782655,67.8862768 C52.4246265,67.554737 51.8392495,66.4318277 52.1707893,65.3781887 L54.7681554,57.1237157 L54.7681554,57.1237157 Z M38.1236372,54.5806452 L40.656857,51.9941318 C41.4297334,51.2049957 42.6959948,51.1918146 43.4851309,51.9646911 C44.274267,52.7375675 44.287448,54.0038289 43.5145716,54.792965 L41.2318446,57.1237157 L43.8292107,65.3781887 C44.1607505,66.4318277 43.5753735,67.554737 42.5217345,67.8862768 C41.4680955,68.2178166 40.3451862,67.6324395 40.0136464,66.5788005 L37.4969336,58.5806452 L29.1071429,58.5806452 C28.0025734,58.5806452 27.1071429,57.6852147 27.1071429,56.5806452 C27.1071429,55.4760757 28.0025734,54.5806452 29.1071429,54.5806452 L38.1236372,54.5806452 L38.1236372,54.5806452 Z M62.4491084,41.911002 L58.5131048,43.9009795 C57.5273591,44.3993561 56.3242403,44.0042653 55.8258638,43.0185196 C55.3274872,42.0327739 55.722578,40.8296551 56.7083237,40.3312785 L60.9776978,38.1727544 L63.7593399,29.646364 C64.1019236,28.5962639 65.2309169,28.0227086 66.281017,28.3652923 C67.3311171,28.707876 67.9046724,29.8368693 67.5620887,30.8869694 L64.9799791,38.8017454 L71.7446123,43.5889551 C72.6462449,44.2270243 72.8599053,45.4751993 72.221836,46.376832 C71.5837668,47.2784646 70.3355918,47.4921249 69.4339591,46.8540557 L62.4491084,41.911002 L62.4491084,41.911002 Z M35.0223022,38.1727544 L39.2916763,40.3312785 C40.277422,40.8296551 40.6725128,42.0327739 40.1741362,43.0185196 C39.6757597,44.0042653 38.4726409,44.3993561 37.4868952,43.9009795 L33.5508916,41.911002 L26.5660409,46.8540557 C25.6644082,47.4921249 24.4162332,47.2784646 23.778164,46.376832 C23.1400947,45.4751993 23.3537551,44.2270243 24.2553877,43.5889551 L31.0200209,38.8017454 L28.4379113,30.8869694 C28.0953276,29.8368693 28.6688829,28.707876 29.718983,28.3652923 C30.7690831,28.0227086 31.8980764,28.5962639 32.2406601,29.646364 L35.0223022,38.1727544 Z" id="Shape"></path>
        </g>
    </g>
</svg>

<svg width="96" height="96" viewBox="0 0 96 96" xmlns="http://www.w3.org/2000/svg"><title>clubs</title><path d="M70.533 20.392c-3.64.786-6.393-1.453-8.183-5.286a20.629 20.629 0 0 1-1.177-3.244 17.994 17.994 0 0 1-.356-1.51 2 2 0 0 1 2.333-2.319c.322.06.848.179 1.511.364a21.14 21.14 0 0 1 3.253 1.188c3.76 1.756 5.997 4.407 5.357 7.888.562.495 1.107 1.01 1.635 1.544.264-.91.63-1.831 1.072-2.754a20.56 20.56 0 0 1 1.507-2.658 2 2 0 0 1 3.287-.01c.398.57.963 1.497 1.528 2.658.708 1.456 1.219 2.906 1.445 4.318.467 2.912-.354 5.413-2.7 6.93.485.934.932 1.89 1.338 2.867a16.84 16.84 0 0 1 1.65-1.833c1.207-1.168 2.401-2.054 3.236-2.578a2 2 0 0 1 3.02 1.28c.054.254.128.676.2 1.227.207 1.56.267 3.176.09 4.727-.428 3.748-2.212 6.437-5.608 6.984.109.889.185 1.783.227 2.68.832-.438 1.783-.784 2.829-1.042a19.745 19.745 0 0 1 3.331-.504 21.392 21.392 0 0 1 2.158-.047 2 2 0 0 1 1.748 2.784c-.426.998-1.183 2.427-2.247 3.875-2.43 3.309-5.38 5.075-8.563 4.066a34.664 34.664 0 0 1-.542 2.17c.465-.055.949-.081 1.448-.08 1.423.005 2.904.229 4.378.598a19.47 19.47 0 0 1 2.007.605 2 2 0 0 1 .79 3.204c-.584.655-1.548 1.591-2.776 2.532-1.797 1.376-3.613 2.317-5.445 2.602-1.526.237-2.969-.012-4.228-.77-.475.769-.98 1.518-1.513 2.247 1.241.244 2.511.69 3.785 1.281a20.631 20.631 0 0 1 2.647 1.452 2 2 0 0 1 .046 3.298c-.576.407-1.515.986-2.69 1.565-1.467.723-2.93 1.246-4.352 1.48-2.595.425-4.869-.169-6.42-1.961-3.508 2.671-7.582 4.726-12.089 5.984l.547-.077c-.59.168-2.777.766-2.74.756-1.122.31-1.984.562-2.816.829-.985.315-1.892.643-2.723.989a12.243 12.243 0 0 1 3.032 4.604 2 2 0 1 1-3.743 1.41c-.588-1.56-1.592-2.844-3.057-3.944-1.465 1.1-2.47 2.385-3.057 3.944a2 2 0 0 1-3.743-1.41 12.243 12.243 0 0 1 3.032-4.604 34.326 34.326 0 0 0-2.723-.99 72.732 72.732 0 0 0-2.816-.828c.037.01-2.15-.588-2.193-.68l-.547-.076a34.503 34.503 0 0 1-11.606-5.834c-1.55 1.735-3.797 2.308-6.356 1.888-1.423-.234-2.885-.757-4.352-1.48-1.175-.579-2.114-1.158-2.69-1.565a2 2 0 0 1 .046-3.298 20.631 20.631 0 0 1 2.647-1.452c1.257-.583 2.51-1.025 3.736-1.271a34.806 34.806 0 0 1-1.491-2.24c-1.254.745-2.686.988-4.201.753-1.832-.285-3.648-1.226-5.445-2.602-1.228-.94-2.192-1.877-2.776-2.532a2 2 0 0 1 .79-3.204 19.47 19.47 0 0 1 2.007-.605c1.474-.37 2.955-.593 4.378-.598.498-.001.98.025 1.442.08a34.972 34.972 0 0 1-.538-2.17c-3.182 1.008-6.132-.758-8.561-4.066-1.064-1.448-1.82-2.877-2.247-3.875a2 2 0 0 1 1.748-2.784l.17-.005c.542-.014 1.22-.002 1.988.052 1.136.08 2.26.24 3.331.504 1.046.258 1.997.604 2.829 1.042a35.77 35.77 0 0 1 .227-2.68c-3.396-.547-5.18-3.236-5.608-6.984-.177-1.551-.117-3.168.09-4.727.072-.551.146-.973.2-1.227a2 2 0 0 1 3.02-1.28c.835.524 2.03 1.41 3.235 2.578a16.728 16.728 0 0 1 1.65 1.833c.407-.976.854-1.933 1.339-2.867-2.346-1.517-3.167-4.018-2.7-6.93.226-1.412.737-2.862 1.445-4.318a20.496 20.496 0 0 1 1.528-2.658 2 2 0 0 1 3.287.01c.392.57.95 1.497 1.507 2.658.443.923.808 1.844 1.072 2.754a32.417 32.417 0 0 1 1.635-1.544c-.64-3.481 1.597-6.132 5.357-7.888a21.14 21.14 0 0 1 3.253-1.188 18.454 18.454 0 0 1 1.511-.364 2 2 0 0 1 2.333 2.32c-.058.323-.173.847-.356 1.509a20.64 20.64 0 0 1-1.177 3.244c-1.79 3.833-4.542 6.072-8.183 5.286-6.62 5.779-10.706 14.87-10.706 24.176a31.27 31.27 0 0 0 8.362 21.33c.654.424 1.23.987 1.71 1.696 3.31 3.034 7.28 5.325 11.667 6.6l.547.076c.566.16 2.733.754 2.713.748 1.168.323 2.076.589 2.968.874 1.988.636 3.744 1.337 5.272 2.146 1.528-.809 3.284-1.51 5.272-2.146.892-.285 1.8-.55 2.968-.874-.02.006 2.147-.587 3.26-.824l-.547.076a30.508 30.508 0 0 0 12.466-7.025c.349-.448.74-.83 1.169-1.147 5.404-5.6 8.651-13.226 8.651-21.53 0-9.306-4.086-18.397-10.706-24.176zM18.55 68.959c-.67.1-1.398.305-2.154.593.789.325 1.547.557 2.242.671 1.249.205 2.104.041 2.707-.6-.602-.677-1.487-.861-2.795-.664zm-7.9-10.882c-.482.002-.989.04-1.51.108 1.145.81 2.237 1.337 3.159 1.48.629.098 1.148.02 1.621-.287-.524-.918-1.574-1.306-3.27-1.3zm-3.635-12.38a13.24 13.24 0 0 0-.834-.177l.025.033c1.481 2.018 2.827 2.9 4.158 2.568-.227-1.173-1.323-1.925-3.35-2.425zm4.383-9.87c.337-1.104-.412-2.63-2.08-4.286.007.408.032.81.076 1.197.217 1.897.79 2.991 1.892 3.378a2.07 2.07 0 0 0 .112-.289zM17.495 21.2c-.108-.685-.329-1.432-.64-2.209-.316.779-.54 1.527-.65 2.213-.204 1.272-.026 2.132.654 2.729.663-.597.838-1.46.636-2.733zm12.53-7.787c.061-.13.12-.26.177-.394-.143.061-.284.125-.423.19-2.092.977-3.13 2.026-3.11 3.293 1.316.038 2.38-.997 3.357-3.089zm47.336 56.81c.695-.114 1.453-.346 2.242-.671a10.575 10.575 0 0 0-2.154-.593c-1.308-.197-2.193-.013-2.795.665.603.64 1.458.804 2.707.6zm6.34-10.558c.921-.143 2.013-.67 3.158-1.48a11.866 11.866 0 0 0-1.51-.108c-1.696-.005-2.746.383-3.27 1.3.473.308.992.386 1.621.288zm6.092-14.112c.009-.01.017-.022.025-.033-.285.051-.563.11-.834.176-2.026.5-3.122 1.252-3.349 2.425 1.33.332 2.677-.55 4.158-2.568zm-3.188-12.815c.044-.388.069-.789.076-1.197-1.668 1.655-2.417 3.182-2.08 4.286.029.096.066.192.112.29 1.102-.388 1.675-1.482 1.892-3.38zm-6.81-11.534c-.11-.686-.334-1.434-.65-2.213-.311.777-.532 1.524-.64 2.209-.202 1.273-.027 2.136.636 2.733.68-.597.858-1.457.655-2.729zm-13.574-7.996c-.14-.064-.28-.128-.423-.189.057.133.116.265.176.394.977 2.092 2.04 3.127 3.357 3.09.02-1.268-1.018-2.317-3.11-3.295zM48 69.204c-13.805 0-25-11.137-25-24.881C23 30.578 34.195 19.44 48 19.44s25 11.137 25 24.882c0 13.744-11.195 24.881-25 24.881zm0-4c11.6 0 21-9.351 21-20.881S59.6 23.44 48 23.44s-21 9.351-21 20.882c0 11.53 9.4 20.881 21 20.881zm1.172-31.655l9.61 6.946a2 2 0 0 1 .73 2.244l-3.697 11.277a2 2 0 0 1-1.9 1.378h-11.83a2 2 0 0 1-1.9-1.378L36.49 42.74a2 2 0 0 1 .729-2.244l9.61-6.946a2 2 0 0 1 2.344 0zm-8.427 9.332l2.79 8.513h8.93l2.79-8.513L48 37.638l-7.255 5.243zM50 29.98v5.19a2 2 0 1 1-4 0v-5.19l-7.06-5.121a2 2 0 1 1 2.349-3.238L48 26.488l6.711-4.868a2 2 0 1 1 2.35 3.238L50 29.979zm4.768 27.145l-2.283-2.331a2 2 0 0 1 2.858-2.799l2.533 2.587h9.017a2 2 0 1 1 0 4h-8.39l-2.517 7.998a2 2 0 0 1-3.815-1.2l2.597-8.255zM38.124 54.58l2.533-2.587a2 2 0 1 1 2.858 2.799l-2.283 2.33 2.597 8.255a2 2 0 1 1-3.815 1.2l-2.517-7.997h-8.39a2 2 0 1 1 0-4h9.017zm24.325-12.67l-3.936 1.99a2 2 0 1 1-1.805-3.57l4.27-2.158 2.781-8.527a2 2 0 1 1 3.803 1.241l-2.582 7.915 6.765 4.787a2 2 0 1 1-2.311 3.265l-6.985-4.943zm-27.427-3.738l4.27 2.158a2 2 0 0 1-1.805 3.57l-3.936-1.99-6.985 4.943a2 2 0 0 1-2.31-3.265l6.764-4.787-2.582-7.915a2 2 0 1 1 3.803-1.24l2.781 8.526z" fill="#19A974"/></svg>
